img/popular-1.svg

<svg width="97" height="55" viewBox="0 0 97 55" fill="none" xmlns="http://www.w3.org/2000/svg">
<g clip-path="url(#clip0)">
<path d="M84.1311 32.639V20.003C84.1311 18.694 85.1761 17.633 86.4661 17.633L94.7921 19.2141V11.02C94.7921 8.66505 93.0841 7.58905 90.5901 6.75505L67.4031 0.175049C69.0191 1.56605 69.2921 2.21505 69.2921 4.57105V49.78C69.2921 52.136 68.8421 53.8461 67.3251 54.9901L90.5901 47.925C92.9911 47.092 94.7921 43.709 94.7921 41.3531V33.44L86.4661 35.007C85.1761 35.009 84.1311 33.947 84.1311 32.639Z" fill="#363636"/>
<path d="M95.129 20.979L87.531 19.535C86.523 19.535 85.707 20.364 85.707 21.386V31.254C85.707 32.277 86.523 33.106 87.531 33.106L95.129 31.675C96.283 31.256 96.953 30.846 96.953 29.823V22.83C96.953 21.808 96.187 21.323 95.129 20.979Z" fill="#363636"/>
<path d="M67.17 4.48303C67.17 -0.596972 62.938 0.0240287 62.938 0.0240287C62.938 0.0240287 5.83205 4.73803 2.83805 5.14503C-0.155951 5.55203 0.00104837 9.53203 0.00104837 9.53203C0.00104837 9.53203 4.83679e-05 42.069 4.83679e-05 45.812C4.83679e-05 49.555 2.59905 49.565 2.59905 49.565L19.076 50.968L27.212 39.3C27.212 39.3 28.321 37.472 29.717 37.472C31.114 37.472 32.149 39.333 32.149 39.333L41.21 52.854C41.21 52.854 60.105 54.763 63.731 54.763C67.357 54.762 67.17 49.739 67.17 49.739C67.17 49.739 67.17 9.56303 67.17 4.48303ZM12.982 37.192C9.28405 37.192 6.28605 32.591 6.28605 26.917C6.28605 21.243 9.28405 16.642 12.982 16.642C16.68 16.642 19.678 21.243 19.678 26.917C19.678 32.591 16.68 37.192 12.982 37.192ZM49.14 38.618C44.4781 38.618 40.6991 33.379 40.6991 26.917C40.6991 20.454 44.479 15.215 49.14 15.215C53.802 15.215 57.5821 20.454 57.5821 26.917C57.5821 33.379 53.802 38.618 49.14 38.618Z" fill="#363636"/>
</g>
<defs>
<clipPath id="clip0">
<rect width="97" height="55" fill="white"/>
</clipPath>
</defs>
</svg>

<svg width="97" height="55" fill="none" xmlns="http://www.w3.org/2000/svg"><g clip-path="url(#clip0)" fill="#363636"><path d="M84.13 32.64V20c0-1.3 1.05-2.37 2.34-2.37l8.32 1.58v-8.19c0-2.35-1.7-3.43-4.2-4.26L67.4.18c1.62 1.39 1.9 2.04 1.9 4.4v45.2c0 2.36-.46 4.07-1.97 5.21l23.26-7.07c2.4-.83 4.2-4.21 4.2-6.57v-7.91l-8.32 1.57a2.35 2.35 0 01-2.34-2.37z"/><path d="M95.13 20.98l-7.6-1.45c-1 0-1.82.83-1.82 1.86v9.86c0 1.03.81 1.86 1.82 1.86l7.6-1.43c1.15-.42 1.82-.83 1.82-1.86v-6.99c0-1.02-.76-1.5-1.82-1.85zM67.17 4.48c0-5.08-4.23-4.46-4.23-4.46S5.84 4.74 2.84 5.15C-.16 5.55 0 9.53 0 9.53v36.28c0 3.74 2.6 3.75 2.6 3.75l16.48 1.4L27.2 39.3s1.11-1.83 2.5-1.83c1.4 0 2.44 1.86 2.44 1.86l9.06 13.52s18.9 1.91 22.52 1.91c3.63 0 3.44-5.02 3.44-5.02V4.48zM12.98 37.2c-3.7 0-6.7-4.6-6.7-10.27 0-5.68 3-10.28 6.7-10.28s6.7 4.6 6.7 10.28c0 5.67-3 10.27-6.7 10.27zm36.16 1.43c-4.66 0-8.44-5.24-8.44-11.7 0-6.47 3.78-11.7 8.44-11.7s8.44 5.23 8.44 11.7c0 6.46-3.78 11.7-8.44 11.7z"/></g><defs><clipPath id="clip0"><path fill="#fff" d="M0 0h97v55H0z"/></clipPath></defs></svg>
